;FLAVOR:Marlin
;TIME:724.424
;Filament used:0.550817m
;Layer Height:0.1
;MINX:99.222
;MINY:83.459
;MINZ:0.1
;MAXX:120.778
;MAXY:137.359
;MAXZ:4.6
;OuterWall Time:262.133
;InnerWall Time:154.83
;Skin Time:171.331
;Support Time:0
;SkirtBrim Time:0
;Infill Time:4.37119
;Support Infills Time:0
;Combing Time:32.5216
;Retraction Time:99.2374
;PrimeTower Time:0

;;;;;;;;;;;;;;;;;;;;;;;;;;;;;;;;;;;;;;;;;;;;;;;;;;;;;;;;;;;;;;;;;;;;;;;;;;;;
;Creality Print GCode Generated by CXEngine
;CRSLICE_GIT_HASH:6b8d75d
;Creality Print Version : V4.3.7.6619
;CXEngine Release Time:2023-09-20 15:19:09
;Gcode Generated Time:2024-01-02 02:31:55
;----------Machine Config--------------
;Machine Name:Ender-3 V3 SE
;Machine Height:250
;Machine Width:220
;Machine Depth:220
;Material Type:PETG
;Material Name:CR-PETG_1.75
;Number of Extruders:1
;ExtruderParams[0] Nozzle Diameter:1000
;----------Profile Config---------------
;Wall Thickness:0.8
;Top/Bottom Thickness:0.8
;Out Wall Line Width:0.42
;Inner Wall Line Width:0.45
;Inital Height:100
;Wall Line Count:2
;Infill Line Distance:8
;Infill Pattern:grid
;Infill Sparse Density:10
;Infill Wipe Distance:0
;Print Temperature:225
;Bed Temperature:70
;Support Enable:false
;Support Density:15
;Support Angle:60
;Adhesion Type:autobrim
;machine is belt:false
;machine belt offset:10
;machine belt offset Y:0
;Raft Base Line Spacing:1.6
;Wait Heatup Sync:true
;Enable Ironing:false
;Material Type:PETG
;Max volumetric speed:18
;Material Diameter:1.75
;Material Density:1.24
;Filament Cost:0.3
;Filament Weight:0
;Preview Img Type:png
;Screen Size:Sermoon D3
;----------Shell Config----------------
;Outer Wall Wipe Distance:200
;Outer Inset First:false
;Infill Before Walls:false
;Infill Overlap:0.04
;Fill Gaps Between Walls:everywhere
;Minimum Infill Area:15
;Top Surface Skin Layer:0
;Top Layers:8
;Z Seam Alignment:sharpest_corner
;Seam Corner Preference:z_seam_corner_inner
;Z Seam X:110
;Z Seam Y:220
;Horizontal Expansion:0
;Top/Bottom Pattern:zigzag
;Ironing Pattern:zigzag
;Vase Model:false
;----------Support Config----------------
;Support Type:everywhere
;Support Pattern:zigzag
;Support Infill Layer Thickness:0.15
;Minimum Support Area:1
;Enable Support Roof:true
;Support Roof Thickness:0.8
;Support Roof Pattern:lines
;Connect Support Lines:0
;Connect Support ZigZags:1
;Minimum Support X/Y Distance:0.2
;Support Line Distance:2.67
; ---------PrintSpeed & Travel----------
;Enable Print Cool:true
;Avoid Printed Parts Traveling:true
;Enable Retraction:true
;Retraction Distance:1.5
;Retraction Speed:40
;Retraction Prime Speed:40
;Maximum Retraction Count:100
;Minimum Extrusion Distance Window:0.8
;Z Hop When Retracted:false
;Z Hop Height:0.2
;Retract Before Outer Wall:true

;Outer Wall Speed:60
;Inner Wall Speed:90
;Infill Speed:180
;Top/Bottom Speed:50
;Travel Speed:150
;Initial Layer Speed:30
;Skirt/Brim Speed:25
;Prime Tower Speed:60
;Outer Wall Acceleration:1000
;Inner Wall Acceleration:2000
;Infill Acceleration:2500
;Top/Bottom Acceleration:2500
;Travel Acceleration:2500
;Initial Layer Print Acceleration:500
;Initial Layer Travel Acceleration:500
;Skirt/Brim Acceleration:500
;Combing Mode:noskin
; --------SpecialModel&Mesh Fixes--------
;Union Overlapping Volum:true
;Remove All Holes:false
;Maximum Travel Resolution:0.25
;Maximum Deviation:0.05
;Maximum Model Angle:0.872665
;IS Mold Print:false
;Make Overhang Printable:false
;Enable Coasting:false
;Coasting Volumes:0.064
;Coasting Speed:0.9
;Raft AirGap:0.25
;Layer0 ZOverLap:0.13
;Adaptive Layers:0
;---------------------End of Head--------------------------
M140 S70
M105
M190 S70
M104 S225
M82 ;absolute extrusion mode
M220 S100 ;Reset Feedrate
M221 S100 ;Reset Flowrate

G28 ;Home

G92 E0 ;Reset Extruder
G1 Z2.0 F3000 ;Move Z Axis up
G1 X10.1 Y20 Z0.28 F5000.0 ;Move to start position
M109 S225.000000
G1 X10.1 Y145.0 Z0.28 F1500.0 E15 ;Draw the first line
G1 X10.4 Y145.0 Z0.28 F5000.0 ;Move to side a little
G1 X10.4 Y20 Z0.28 F1500.0 E30 ;Draw the second line
G92 E0  ;Reset Extruder
G1 E-1.0000 F1800 ;Retract a bit
G1 Z2.0 F3000 ;Move Z Axis up
G1 E0.0000 F1800 

G92 E0
G92 E0
G1 F2400 E-1.5
;LAYER_COUNT:46

;LAYER:0
M106 S0
M204 S500
;MESH:0_0
G0 F4800 X99.722 Y84.016 Z0.1
;TYPE:WALL-INNER
G1 F2400 E0
G1 F1800 X120.279 Y84.016 E0.4019
G1 X120.279 Y88.69 E0.49328
G1 X120.279 Y93.087 E0.57925
G1 F1747.1 X120.264 Y94.074 E0.59913
G1 F1693.9 X120.262 Y114.481 E1.02309
G1 F1681.1 X120.26 Y134.888 E1.45027
G1 F1451.1 X120.178 Y135.537 E1.46614
G1 F1280.2 X120.178 Y135.884 E1.47567
G1 X119.831 Y135.884 E1.48521
G1 F1448.8 X119.186 Y135.965 E1.501
G1 F1678 X100.986 Y135.969 E1.8827
G1 F1458.3 X100.17 Y135.884 E1.9025
G1 F1280.2 X99.822 Y135.884 E1.91207
G1 X99.822 Y135.537 E1.92161
G1 F1451.1 X99.74 Y134.888 E1.93747
G1 F1678 X99.739 Y114.481 E2.36546
G1 F1690.7 X99.737 Y94.074 E2.79022
G1 F1747.1 X99.722 Y93.087 E2.81011
G1 F1800 X99.722 Y84.016 E2.98745
;;retract;;
G1 F2400 E1.93745
G1 X101.672 Y84.459 E1.50995
G1 F2400 E1.48745
G0 F4800 X99.243 Y83.537
;TYPE:WALL-OUTER
G1 F2400 E2.98745
G1 F1800 X120.757 Y83.537 E3.38003
G1 X120.757 Y88.69 E3.47405
G1 X120.757 Y136.463 E4.34578
G1 X99.243 Y136.463 E4.73836
G1 X99.243 Y83.537 E5.70412
G0 F4800 X99.443 Y83.537
G0 X99.892 Y84.186
G0 X99.93 Y93.087
G0 X99.99 Y94.112
G0 X100.242 Y93.674
G0 X100.42 Y93.365
G0 X100.56 Y93.506
;TYPE:WALL-INNER
G1 F1800 X100.986 Y93.365 E5.71289
G1 X119.014 Y93.365 E6.06535
G1 X119.44 Y93.506 E6.07412
G1 F1747.1 X119.739 Y94.074 E6.08705
G1 F1693.9 X119.739 Y134.817 E6.93349
G1 F1455.9 X119.585 Y135.29 E6.94552
G1 F1448.8 X119.14 Y135.434 E6.95688
G1 F1678 X119.014 Y135.442 E6.95953
G1 F1690.7 X100.986 Y135.442 E7.33477
G1 F1458.3 X100.415 Y135.29 E7.34903
G1 F1455.9 X100.262 Y134.821 E7.36096
G1 F1690.7 X100.262 Y94.074 E8.20909
G1 F1747.1 X100.56 Y93.506 E8.22201
;;retract;;
G1 F2400 E7.17201
G1 X102.56 Y93.491 E6.74451
G1 F2400 E6.72201
G0 F4800 X100.87 Y93.843
;TYPE:WALL-OUTER
G1 F2400 E8.22201
G1 F1800 X119.13 Y93.843 E8.55521
G1 X119.245 Y94.074 E8.55991
G1 X119.242 Y134.756 E9.30225
G1 X119.054 Y134.944 E9.3071
G1 X100.986 Y134.947 E9.6368
G1 X100.823 Y134.88 E9.64001
G1 X100.758 Y134.756 E9.64257
G1 X100.755 Y94.074 E10.38491
G1 X100.87 Y93.843 E10.38961
G0 F4800 X101.07 Y93.843
;;retract;;
G1 F2400 E9.33961
G1 X103.069 Y93.868 E8.91211
G1 F2400 E8.88961
G0 F4800 X101.07 Y93.164
G0 X100.437 Y93.338
G0 X99.99 Y94.112
G0 X99.974 Y93.822
G0 X99.869 Y84.474
G1 F2400 E10.38961
G0 F4800 X100.179 Y84.474
;TYPE:SKIN
G1 F1800 X100.18 Y93.292 E10.55899
G1 X100.304 Y93.121 E10.56304
G1 X100.953 Y92.906 E10.57618
G1 X119.047 Y92.906 E10.92372
G1 X119.698 Y93.121 E10.93689
G1 X119.82 Y93.292 E10.94092
G1 X119.82 Y88.69 E11.02932
G1 X119.82 Y84.474 E11.1103
G1 X100.179 Y84.474 E11.48756
G0 F4800 X99.869 Y84.474
G0 X99.93 Y93.087
G0 X99.99 Y94.112
G0 X100.437 Y93.338
G0 X100.778 Y93.227
G0 X100.614 Y92.773
G1 F1800 X100.409 Y92.569 E11.49311
G1 X100.409 Y91.916
G1 X101.168 Y92.674 E11.51372
G1 X101.821 Y92.674
G1 X100.409 Y91.262 E11.55207
G1 X100.409 Y90.609
G1 X102.475 Y92.674 E11.60818
G1 X103.128 Y92.674
G1 X100.409 Y89.956 E11.68202
G1 X100.409 Y89.302
G1 X103.782 Y92.674 E11.77363
G1 X104.435 Y92.674
G1 X100.409 Y88.649 E11.88298
G1 X100.409 Y87.995
G1 X105.088 Y92.674 E12.01008
G1 X105.742 Y92.674
G1 X100.409 Y87.342 E12.15493
G1 X100.409 Y86.689
G1 X106.395 Y92.674 E12.31752
G1 X107.048 Y92.674
G1 X100.409 Y86.035 E12.49786
G1 X100.409 Y85.382
G1 X107.702 Y92.674 E12.69595
G1 X108.355 Y92.674
G1 X100.409 Y84.729 E12.91178
G1 X101.039 Y84.705
G1 X109.008 Y92.674 E13.12825
G1 X109.662 Y92.674
G1 X101.692 Y84.705 E13.34474
G1 X102.345 Y84.705
G1 X110.315 Y92.674 E13.56122
G1 X110.969 Y92.674
G1 X102.999 Y84.705 E13.7777
G1 X103.652 Y84.705
G1 X111.622 Y92.674 E13.99418
G1 X112.275 Y92.674
G1 X104.306 Y84.705 E14.21065
G1 X104.959 Y84.705
G1 X112.929 Y92.674 E14.42713
G1 X113.582 Y92.674
G1 X105.612 Y84.705 E14.64361
G1 X106.266 Y84.705
G1 X114.235 Y92.674 E14.86008
G1 X114.889 Y92.674
G1 X106.919 Y84.705 E15.07657
G1 X107.572 Y84.705
G1 X115.542 Y92.674 E15.29305
G1 X116.196 Y92.674
G1 X108.226 Y84.705 E15.50953
G1 X108.879 Y84.705
G1 X116.849 Y92.674 E15.72601
G1 X117.502 Y92.674
G1 X109.532 Y84.705 E15.94249
G1 X110.186 Y84.705
G1 X118.156 Y92.674 E16.15898
G1 X118.809 Y92.674
G1 X110.839 Y84.705 E16.37546
G1 X111.493 Y84.705
G1 X119.588 Y92.799 E16.59534
G1 X119.588 Y92.146
G1 X112.146 Y84.705 E16.79748
G1 X112.799 Y84.705
G1 X119.588 Y91.493 E16.98188
G1 X119.588 Y90.839
G1 X113.453 Y84.705 E17.14851
G1 X114.106 Y84.705
G1 X119.588 Y90.186 E17.29741
G1 X119.588 Y89.533
G1 X114.759 Y84.705 E17.42857
G1 X115.413 Y84.705
G1 X119.588 Y88.879 E17.54197
G1 X119.588 Y88.226
G1 X116.066 Y84.705 E17.63763
G1 X116.719 Y84.705
G1 X119.588 Y87.573 E17.71554
G1 X119.588 Y86.919
G1 X117.373 Y84.705 E17.7757
G1 X118.026 Y84.705
G1 X119.588 Y86.266 E17.81812
G1 X119.588 Y85.612
G1 X118.68 Y84.705 E17.84277
G1 X119.333 Y84.705
G1 X119.588 Y84.959 E17.84968
;MESH:NONMESH
G0 F600 X119.588 Y84.959 Z0.2
G0 F4800 X120.131 Y84.959
G0 X120.059 Y84.235
G0 X99.892 Y84.186
G0 X99.657 Y83.951
;TIME_ELAPSED:40.452648

;LAYER:1
M106 S63.8
M204 S1250
;TYPE:WALL-INNER
;MESH:0_0
G1 F3600 X120.343 Y83.951 E18.21734
G1 X120.343 Y88.69 E18.30157
G1 X120.343 Y93.087 E18.37972
G1 F3189 X120.285 Y94.074 E18.39956
G1 F2852.1 X120.283 Y114.481 E18.85736
G1 F2832.2 X120.281 Y134.888 E19.3184
G1 F3164.1 X120.343 Y135.537 E19.33158
G1 F3600 X120.343 Y136.049 E19.34068
G1 X119.831 Y136.049 E19.34978
G1 F3157.9 X119.186 Y135.986 E19.36291
G1 F2827.2 X100.986 Y135.99 E19.77481
G1 F3182.7 X100.17 Y136.049 E19.79125
G1 F3600 X99.657 Y136.049 E19.80037
G1 X99.657 Y135.537 E19.80947
G1 F3164.1 X99.719 Y134.888 E19.82265
G1 F2827.2 X99.718 Y114.481 E20.28449
G1 F2847.1 X99.716 Y94.074 E20.74311
G1 F3189 X99.657 Y93.087 E20.76295
G1 F3600 X99.657 Y83.951 E20.92533
M204 S1500
;;retract;;
G1 F2400 E19.87533
G1 F3450 X101.606 Y84.397 E19.44783
G1 F2400 E19.42533
G0 F6900 X99.243 Y83.516
M204 S750
;TYPE:WALL-OUTER
G1 F2400 E20.92533
G1 F2700 X120.778 Y83.516 E21.28256
G1 X120.778 Y88.69 E21.36839
G1 X120.778 Y136.484 E22.16122
G1 X99.222 Y136.484 E22.5188
G1 X99.222 Y83.516 E23.39746
G1 X99.243 Y83.516 E23.39781
M204 S1500
G0 F6900 X99.443 Y83.516
G0 X99.782 Y84.186
G0 X99.843 Y93.089
G0 X99.901 Y94.482
G0 X100.534 Y93.452
G0 X100.599 Y93.558
M204 S1250
;TYPE:WALL-INNER
G1 F3600 X100.986 Y93.429 E23.40506
G1 X119.014 Y93.429 E23.72548
G1 X119.401 Y93.558 E23.73273
G1 F3189 X119.718 Y94.074 E23.74488
G1 F2852.1 X119.718 Y134.828 E24.65915
G1 F3176.5 X119.469 Y135.173 E24.66772
G1 F3170.3 X119.126 Y135.421 E24.67627
G1 F2837.1 X100.986 Y135.421 E25.08537
G1 F3182.7 X100.531 Y135.173 E25.09578
G1 F3164.1 X100.289 Y134.838 E25.10414
G1 F2837.1 X100.283 Y134.716 E25.1069
G1 F2857.1 X100.283 Y94.074 E26.01705
G1 F3189 X100.599 Y93.558 E26.02919
M204 S1500
;;retract;;
G1 F2400 E24.97919
G1 F3450 X102.599 Y93.544 E24.55169
G1 F2400 E24.52919
G0 F6900 X100.881 Y93.864
M204 S750
;TYPE:WALL-OUTER
G1 F2400 E26.02919
G1 F2700 X119.119 Y93.864 E26.33173
G1 X119.224 Y94.074 E26.33563
G1 X119.221 Y134.752 E27.01041
G1 X119.05 Y134.923 E27.01443
G1 X100.986 Y134.926 E27.31408
G1 X100.779 Y134.752 E27.31857
G1 X100.776 Y94.074 E27.99335
G1 X100.881 Y93.864 E27.99725
M204 S1500
G0 F6900 X101.081 Y93.864
;;retract;;
G1 F2400 E26.94725
G1 F3450 X103.08 Y93.887 E26.51975
G1 F2400 E26.49725
G0 F6900 X100.956 Y93.014
;TYPE:SKIN
G1 F2400 E27.99725
G1 X119.044 Y93.014 E28.31309
G1 X119.656 Y93.219 E28.32436
G1 X119.873 Y93.541 E28.33114
G1 X119.928 Y93.073 E28.33937
G1 X119.928 Y88.69 E28.41591
G1 X119.928 Y84.366 E28.49141
G1 X100.072 Y84.366 E28.83813
G1 X100.073 Y93.089 E28.99044
G1 X100.127 Y93.541 E28.99839
G1 X100.344 Y93.22 E29.00516
G1 X100.956 Y93.014 E29.01643
G0 F6900 X101.002 Y93.304
G0 X99.901 Y94.482
G0 X99.872 Y93.284
G0 X99.782 Y84.827
G0 X100.491 Y84.827
G1 F2400 X100.491 Y84.786 E29.01715
G1 X101.126 Y84.785 E29.02824
G1 X100.491 Y85.421 E29.04393
G1 X100.491 Y86.015 E29.0543
G1 X101.72 Y84.785 E29.08467
G1 X102.314 Y84.785 E29.09504
G1 X100.491 Y86.609 E29.14007
G1 X100.491 Y87.203 E29.15044
G1 X102.908 Y84.785 E29.21014
G1 X103.502 Y84.785 E29.22051
G1 X100.491 Y87.797 E29.29488
G1 X100.491 Y88.391 E29.30525
G1 X104.096 Y84.785 E29.39429
G1 X104.69 Y84.785 E29.40466
G1 X100.491 Y88.985 E29.50836
G1 X100.491 Y89.579 E29.51873
G1 X105.284 Y84.785 E29.63711
G1 X105.878 Y84.785 E29.64748
G1 X100.491 Y90.173 E29.78052
G1 X100.491 Y90.767 E29.79089
G1 X106.472 Y84.785 E29.9386
G1 X107.066 Y84.785 E29.94897
G1 X100.491 Y91.361 E30.11135
G1 X100.491 Y91.954 E30.12171
G1 X107.66 Y84.785 E30.29874
G1 X108.254 Y84.785 E30.30911
G1 X100.491 Y92.548 E30.50082
G1 X100.491 Y92.727 E30.50394
G1 X100.887 Y92.594 E30.51124
G1 X101.039 Y92.594 E30.51389
G1 X108.848 Y84.785 E30.70673
G1 X109.442 Y84.785 E30.7171
G1 X101.633 Y92.594 E30.90994
G1 X102.227 Y92.594 E30.92031
G1 X110.036 Y84.785 E31.11315
G1 X110.63 Y84.785 E31.12352
G1 X102.821 Y92.594 E31.31636
G1 X103.415 Y92.594 E31.32673
G1 X111.224 Y84.785 E31.51957
G1 X111.818 Y84.785 E31.52994
G1 X104.009 Y92.594 E31.72278
G1 X104.603 Y92.594 E31.73315
G1 X112.412 Y84.785 E31.92599
G1 X113.006 Y84.785 E31.93636
G1 X105.197 Y92.594 E32.1292
G1 X105.791 Y92.594 E32.13957
G1 X113.6 Y84.785 E32.33241
G1 X114.194 Y84.785 E32.34279
G1 X106.385 Y92.594 E32.53562
G1 X106.979 Y92.594 E32.546
G1 X114.788 Y84.785 E32.73883
G1 X115.382 Y84.785 E32.74921
G1 X107.573 Y92.594 E32.94205
G1 X108.167 Y92.594 E32.95242
G1 X115.976 Y84.785 E33.14526
G1 X116.57 Y84.785 E33.15563
G1 X108.761 Y92.594 E33.34847
G1 X109.355 Y92.594 E33.35884
G1 X117.164 Y84.785 E33.55168
G1 X117.758 Y84.785 E33.56205
G1 X109.949 Y92.594 E33.75489
G1 X110.543 Y92.594 E33.76526
G1 X118.351 Y84.785 E33.95809
G1 X118.945 Y84.785 E33.96846
G1 X111.137 Y92.594 E34.16128
G1 X111.731 Y92.594 E34.17166
G1 X119.507 Y84.818 E34.36368
G1 X119.507 Y85.412 E34.37405
G1 X112.325 Y92.594 E34.55141
G1 X112.919 Y92.594 E34.56178
G1 X119.507 Y86.006 E34.72447
G1 X119.507 Y86.6 E34.73484
G1 X113.513 Y92.594 E34.88286
G1 X114.107 Y92.594 E34.89323
G1 X119.507 Y87.194 E35.02658
G1 X119.507 Y87.788 E35.03695
G1 X114.701 Y92.594 E35.15563
G1 X115.295 Y92.594 E35.166
G1 X119.507 Y88.381 E35.27003
G1 X119.507 Y88.975 E35.2804
G1 X115.889 Y92.594 E35.36976
G1 X116.483 Y92.594 E35.38013
G1 X119.507 Y89.569 E35.45482
G1 X119.507 Y90.163 E35.46519
G1 X117.077 Y92.594 E35.52521
G1 X117.671 Y92.594 E35.53558
G1 X119.507 Y90.757 E35.58093
G1 X119.507 Y91.351 E35.59131
G1 X118.265 Y92.594 E35.62199
G1 X118.858 Y92.594 E35.63234
G1 X119.507 Y91.945 E35.64837
G1 X119.507 Y92.726 E35.66201
G1 X119.367 Y92.679 E35.66459
G1 X119.507 Y92.539 E35.66804
;;retract;;
G1 F2400 E34.61804
G1 F3450 X119.367 Y92.679
G1 X119.507 Y92.726
G1 X119.507 Y91.945
G1 X118.888 Y92.564
G1 X119.507 Y91.945 E34.43101
G1 X119.507 Y92.726 E34.26407
G1 X119.367 Y92.679 E34.23265
G1 X119.507 Y92.539 E34.19054
G1 F2400 E34.16804
G0 F6900 X120.218 Y92.539
G0 X120.157 Y93.089
G0 X120.01 Y94.112
G0 X119.835 Y93.847
G0 X119.86 Y135.056
G0 X119.354 Y135.562
G0 X100.729 Y135.536
G0 X101.025 Y135.712
G0 X100.172 Y135.863
G0 X99.854 Y135.852
G0 X99.843 Y135.534
G0 X99.997 Y134.85
G0 X100.38 Y135.315
G1 F2400 E35.66804
G0 F6900 X100.278 Y135.427
G1 F2400 X100.084 Y135.191 E35.67338
G1 X99.983 Y135.718 E35.68275
G1 X100.602 Y135.627 E35.69367
G1 X100.278 Y135.427 E35.70032
;;retract;;
G1 F2400 E34.65032
