;FLAVOR:Marlin
;TIME:2872.07
;Filament used:2.20971m
;Layer Height:0.1
;MINX:94.22
;MINY:84.496
;MINZ:0.1
;MAXX:125.78
;MAXY:135.504
;MAXZ:14.5
;OuterWall Time:751.254
;InnerWall Time:565.108
;Skin Time:908.459
;Support Time:0
;SkirtBrim Time:0
;Infill Time:106.908
;Support Infills Time:0
;Combing Time:228.167
;Retraction Time:312.177
;PrimeTower Time:0


;;;;;;;;;;;;;;;;;;;;;;;;;;;;;;;;;;;;;;;;;;;;;;;;;;;;;;;;;;;;;;;;;;;;;;;;;;;;
;Creality Print GCode Generated by CXEngine
;CRSLICE_GIT_HASH:6b8d75d
;Creality Print Version : V4.3.7.6619
;CXEngine Release Time:2023-09-20 15:19:09
;Gcode Generated Time:2024-01-01 20:53:31
;----------Machine Config--------------
;Machine Name:Ender-3 V3 SE
;Machine Height:250
;Machine Width:220
;Machine Depth:220
;Material Type:PETG
;Material Name:CR-PETG_1.75
;Number of Extruders:1
;ExtruderParams[0] Nozzle Diameter:1000
;----------Profile Config---------------
;Wall Thickness:0.8
;Top/Bottom Thickness:0.8
;Out Wall Line Width:0.42
;Inner Wall Line Width:0.45
;Inital Height:100
;Wall Line Count:2
;Infill Line Distance:8
;Infill Pattern:grid
;Infill Sparse Density:10
;Infill Wipe Distance:0
;Print Temperature:225
;Bed Temperature:70
;Support Enable:false
;Support Density:15
;Support Angle:60
;Adhesion Type:autobrim
;machine is belt:false
;machine belt offset:10
;machine belt offset Y:0
;Raft Base Line Spacing:1.6
;Wait Heatup Sync:true
;Enable Ironing:false
;Material Type:PETG
;Max volumetric speed:18
;Material Diameter:1.75
;Material Density:1.24
;Filament Cost:0.3
;Filament Weight:0
;Preview Img Type:png
;Screen Size:Sermoon D3
;----------Shell Config----------------
;Outer Wall Wipe Distance:200
;Outer Inset First:false
;Infill Before Walls:false
;Infill Overlap:0.04
;Fill Gaps Between Walls:everywhere
;Minimum Infill Area:15
;Top Surface Skin Layer:0
;Top Layers:8
;Z Seam Alignment:sharpest_corner
;Seam Corner Preference:z_seam_corner_inner
;Z Seam X:110
;Z Seam Y:220
;Horizontal Expansion:0
;Top/Bottom Pattern:zigzag
;Ironing Pattern:zigzag
;Vase Model:false
;----------Support Config----------------
;Support Type:everywhere
;Support Pattern:zigzag
;Support Infill Layer Thickness:0.15
;Minimum Support Area:1
;Enable Support Roof:true
;Support Roof Thickness:0.8
;Support Roof Pattern:lines
;Connect Support Lines:0
;Connect Support ZigZags:1
;Minimum Support X/Y Distance:0.2
;Support Line Distance:2.67
; ---------PrintSpeed & Travel----------
;Enable Print Cool:true
;Avoid Printed Parts Traveling:true
;Enable Retraction:true
;Retraction Distance:1.5
;Retraction Speed:40
;Retraction Prime Speed:40
;Maximum Retraction Count:100
;Minimum Extrusion Distance Window:0.8
;Z Hop When Retracted:false
;Z Hop Height:0.2
;Retract Before Outer Wall:true

;Outer Wall Speed:60
;Inner Wall Speed:90
;Infill Speed:180
;Top/Bottom Speed:50
;Travel Speed:150
;Initial Layer Speed:30
;Skirt/Brim Speed:25
;Prime Tower Speed:60
;Outer Wall Acceleration:1000
;Inner Wall Acceleration:2000
;Infill Acceleration:2500
;Top/Bottom Acceleration:2500
;Travel Acceleration:2500
;Initial Layer Print Acceleration:500
;Initial Layer Travel Acceleration:500
;Skirt/Brim Acceleration:500
;Combing Mode:noskin
; --------SpecialModel&Mesh Fixes--------
;Union Overlapping Volum:true
;Remove All Holes:false
;Maximum Travel Resolution:0.25
;Maximum Deviation:0.05
;Maximum Model Angle:0.872665
;IS Mold Print:false
;Make Overhang Printable:false
;Enable Coasting:false
;Coasting Volumes:0.064
;Coasting Speed:0.9
;Raft AirGap:0.25
;Layer0 ZOverLap:0.13
;Adaptive Layers:0
;---------------------End of Head--------------------------
M140 S70
M105
M190 S70
M104 S225
M82 ;absolute extrusion mode
M220 S100 ;Reset Feedrate
M221 S100 ;Reset Flowrate

G28 ;Home

G92 E0 ;Reset Extruder
G1 Z2.0 F3000 ;Move Z Axis up
G1 X10.1 Y20 Z0.28 F5000.0 ;Move to start position
M109 S225.000000
G1 X10.1 Y145.0 Z0.28 F1500.0 E15 ;Draw the first line
G1 X10.4 Y145.0 Z0.28 F5000.0 ;Move to side a little
G1 X10.4 Y20 Z0.28 F1500.0 E30 ;Draw the second line
G92 E0  ;Reset Extruder
G1 E-1.0000 F1800 ;Retract a bit
G1 Z2.0 F3000 ;Move Z Axis up
G1 E0.0000 F1800 

G92 E0
G92 E0
G1 F2400 E-1.5
;LAYER_COUNT:145

;LAYER:0
M106 S0
M204 S500
;MESH:0_0
G0 F4800 X96.859 Y95.268 Z0.1
;TYPE:WALL-INNER
G1 F2400 E0
G1 F1541.5 X96.384 Y95.458 E0.01168
G1 F1848.5 X95.983 Y95.64 E0.02006
G1 F1818.4 X95.627 Y95.816 E0.02775
G1 F1774.9 X95.145 Y96.388 E0.04258
G1 F1764.4 X94.99 Y96.734 E0.05014
G1 F1588.2 X94.781 Y97.128 E0.06002
G1 X94.725 Y96.666 E0.07034
G1 F1764.4 X94.839 Y95.973 E0.08434
G1 F1747.1 X95.218 Y95.501 E0.09654
G1 F1743.6 X95.479 Y95.323 E0.10291
G1 F1803.6 X95.862 Y95.172 E0.11095
G1 F1848.5 X96.356 Y95.171 E0.12035
G1 F1541.5 X96.859 Y95.268 E0.13204
G0 F4800 X96.65 Y95.287
G0 X99.171 Y95.308
G0 X99.178 Y95.177
G1 F1800 X99.533 Y94.948 E0.1403
G1 X99.666 Y94.739 E0.14515
G1 X99.72 Y94.468 E0.15055
G1 X99.72 Y84.996 E0.33573
G1 X120.28 Y84.996 E0.7377
G1 X120.285 Y94.56 E0.92468
G1 X120.505 Y94.987 E0.93407
G1 X120.879 Y95.178 E0.94228
G1 X121.645 Y95.178 E0.95726
G1 F1656.1 X122.292 Y95.221 E0.97104
G1 F1505.1 X122.555 Y95.292 E0.9774
G1 F1623 X121.777 Y95.743 E0.9969
G1 F1800 X121.553 Y95.918 E1.00246
G1 X121.165 Y96.372 E1.01414
G1 X120.848 Y97.058 E1.02891
G1 X120.786 Y97.806 E1.04359
G1 X120.924 Y98.541 E1.05821
G1 X121.449 Y99.358 E1.07719
G1 X121.964 Y99.716 E1.08946
G1 X122.205 Y99.825 E1.09463
G1 F1502.5 X122.812 Y100.069 E1.10995
G1 X122.165 Y100.167 E1.12528
G1 F1800 X120.913 Y100.172 E1.14975
G1 X120.536 Y100.299 E1.15753
G1 X120.282 Y100.687 E1.1666
G1 X120.281 Y119.174 E1.52803
G1 X120.343 Y119.415 E1.5329
G1 X120.532 Y119.665 E1.53902
G1 X120.982 Y119.832 E1.54841
G1 X121.568 Y119.832 E1.55987
G1 F1844.7 X122.061 Y119.82 E1.56927
G1 F2096.5 X122.371 Y119.774 E1.57453
G1 F2495.8 X123.005 Y119.752 E1.58348
G1 X123.618 Y119.774 E1.59213
G1 F2205.4 X123.937 Y119.8 E1.59723
G1 F1912 X124.426 Y119.933 E1.60656
G1 F1740.2 X124.802 Y120.176 E1.61561
G1 F1723.4 X125.014 Y120.427 E1.62232
G1 F1733.5 X125.176 Y120.748 E1.62962
G1 X125.271 Y121.329 E1.64157
G1 F1647 X125.22 Y121.766 E1.65098
G1 X125.013 Y121.381 E1.66032
G1 F1733.5 X124.863 Y121.023 E1.6682
G1 F1723.4 X124.441 Y120.555 E1.68106
G1 F1740.2 X124.205 Y120.389 E1.6869
G1 F2011.3 X123.74 Y120.168 E1.69591
G1 F2488.8 X123.005 Y120.087 E1.70636
G1 F2495.8 X122.415 Y120.151 E1.71473
G1 F2096.5 X122.162 Y120.193 E1.71904
G1 F1844.7 X121.731 Y120.432 E1.72844
G1 F1800 X121.479 Y120.686 E1.73543
G1 X120.811 Y121.853 E1.76172
G1 X120.781 Y122.463 E1.77366
G1 X120.866 Y122.98 E1.7839
G1 X121.157 Y123.617 E1.7976
G1 X121.551 Y124.079 E1.80947
G1 X121.776 Y124.255 E1.81505
G1 F1703.6 X122.344 Y124.568 E1.82845
G1 F1418.8 X122.581 Y124.717 E1.83539
G1 X122.292 Y124.793 E1.8428
G1 F1703.6 X121.643 Y124.821 E1.85622
G1 F1800 X120.875 Y124.822 E1.87124
G1 X120.64 Y124.913 E1.87617
G1 X120.426 Y125.099 E1.88171
G1 X120.285 Y125.439 E1.8889
G1 X120.28 Y135.005 E2.07593
G1 X99.721 Y135.005 E2.47787
G1 X99.718 Y125.477 E2.66415
G1 X99.563 Y125.086 E2.67237
G1 X99.248 Y124.822 E2.68041
G1 X98.354 Y124.821 E2.69789
G1 F1656.1 X97.707 Y124.778 E2.71166
G1 F1505.1 X97.446 Y124.707 E2.71799
G1 F1623 X98.222 Y124.256 E2.73745
G1 F1800 X98.446 Y124.081 E2.74301
G1 X98.849 Y123.61 E2.75513
G1 X99.151 Y122.94 E2.7695
G1 X99.213 Y122.193 E2.78415
G1 X99.074 Y121.458 E2.79877
G1 X98.548 Y120.639 E2.8178
G1 X98.036 Y120.283 E2.83
G1 X97.794 Y120.175 E2.83518
G1 F1502.5 X97.187 Y119.93 E2.85051
G1 X97.834 Y119.832 E2.86584
G1 F1800 X99.086 Y119.828 E2.89031
G1 X99.379 Y119.728 E2.89637
G1 X99.628 Y119.471 E2.90336
G1 X99.717 Y119.184 E2.90924
G1 X99.718 Y100.825 E3.26817
G1 X99.605 Y100.49 E3.27508
G1 X99.381 Y100.252 E3.28147
G1 X99.061 Y100.169 E3.28793
G1 X97.832 Y100.167 E3.31196
G1 F1512.7 X97.14 Y100.074 E3.3282
G1 X97.792 Y99.823 E3.34446
G1 F1800 X98.032 Y99.716 E3.34959
G1 X98.541 Y99.364 E3.36169
G1 X98.985 Y98.721 E3.37697
G1 X99.222 Y97.791 E3.39573
G1 X99.068 Y96.825 E3.41486
G1 X98.711 Y96.182 E3.42924
G1 F1753.9 X98.35 Y95.817 E3.43954
G1 F1665.4 X97.663 Y95.435 E3.45615
G1 F1421.1 X97.424 Y95.283 E3.46316
G1 X97.718 Y95.205 E3.47069
G1 F1706.9 X98.37 Y95.178 E3.48415
G1 F1800 X99.178 Y95.177 E3.49994
G0 F4800 X99.171 Y95.308
G0 X97.726 Y95.329
G0 X96.186 Y95.386
G0 X95.477 Y95.822
G0 X95.067 Y96.296
G0 X95.159 Y97.016
G0 X94.839 Y98.55
G0 X94.787 Y98.238
G1 F1475.2 X94.859 Y98.394 E3.50404
G1 F1631.9 X95.004 Y98.656 E3.5105
G1 F1733.5 X95.137 Y98.972 E3.51746
G1 F1767.9 X95.656 Y99.553 E3.53297
G1 F1924.4 X96.181 Y99.795 E3.54354
G1 F2233.1 X96.567 Y99.867 E3.54973
G1 F1716.8 X96.937 Y100.077 E3.55845
G1 X96.538 Y100.232 E3.56722
G1 F2233.1 X96.058 Y100.199 E3.57481
G1 F1920.3 X95.681 Y100.108 E3.58191
G1 F1764.4 X95.287 Y99.927 E3.59056
G1 F1733.5 X94.984 Y99.571 E3.60005
G1 X94.763 Y99.134 E3.60999
G1 X94.729 Y98.717 E3.61849
G1 F1557.7 X94.787 Y98.238 E3.62939
;;retract;;
G1 F2400 E2.57939
G1 X94.859 Y98.394 E2.54284
G1 X95.004 Y98.656 E2.47893
G1 X95.137 Y98.972 E2.40582
G1 X95.656 Y99.553 E2.23931
G1 X96.027 Y99.724 E2.15189
G1 F2400 E2.12939
G0 F4800 X94.839 Y98.55
G0 X95.126 Y97.076
G0 X95.16 Y96.192
G0 X95.589 Y95.716
G0 X96.105 Y95.428
G0 X97.723 Y95.328
G1 F2400 E3.62939
G0 F4800 X97.397 Y95.867
;TYPE:WALL-OUTER
G1 F1800 X98.051 Y96.196 E3.64275
G1 X98.285 Y96.433 E3.64882
G1 X98.338 Y96.491 E3.65026
G1 X98.612 Y96.991 E3.66066
G1 X98.734 Y97.766 E3.67498
G1 X98.543 Y98.51 E3.68899
G1 X98.2 Y99.019 E3.70019
G1 X97.724 Y99.348 E3.71075
G1 X97.018 Y99.516 E3.72399
G1 X96.435 Y99.426 E3.73476
G1 X95.954 Y99.144 E3.74493
G1 X95.555 Y98.71 E3.75569
G1 X95.324 Y98.144 E3.76685
G1 X95.259 Y97.586 E3.7771
G1 X95.319 Y97.181 E3.78457
G1 X95.559 Y96.645 E3.79528
G1 X95.944 Y96.199 E3.80603
G1 X96.438 Y95.928 E3.81632
G1 X96.988 Y95.821 E3.82654
G1 X97.397 Y95.867 E3.83405
G0 F4800 X97.575 Y95.956
G0 X97.878 Y95.351
G0 X98.457 Y95.728
G0 X98.884 Y96.193
G0 X99.22 Y96.87
G0 X99.348 Y97.866
G0 X99.113 Y98.776
G0 X98.579 Y99.509
G0 X98.032 Y99.883
G0 X97.301 Y100.056
G0 X97.14 Y100.074
;TYPE:WALL-INNER
G1 F438.7 X96.937 Y100.077 E3.83948
G0 F4800 X96.675 Y100.06
G0 X99.184 Y100.431
G0 X99.456 Y100.703
G0 X99.456 Y119.296
G0 X99.184 Y119.568
G0 X96.791 Y119.813
G0 X94.839 Y121.449
G0 X94.772 Y121.787
G1 F1690.7 X94.729 Y121.292 E3.84982
G1 F1733.5 X94.765 Y120.862 E3.85858
G1 X94.985 Y120.429 E3.86844
G1 F1723.4 X95.198 Y120.175 E3.87521
G1 F1743.6 X95.575 Y119.932 E3.88426
G1 F1912 X96.063 Y119.8 E3.89357
G1 F2238.7 X96.526 Y119.768 E3.90086
G1 F1716.8 X96.925 Y119.922 E3.90963
G1 X96.555 Y120.133 E3.91836
G1 F2238.7 X96.189 Y120.202 E3.92422
G1 F1912 X95.794 Y120.388 E3.93225
G1 F1743.6 X95.563 Y120.55 E3.93795
G1 F1723.4 X95.135 Y121.03 E3.95108
G1 F1733.5 X95.001 Y121.347 E3.95806
G1 F1690.7 X94.772 Y121.787 E3.96839
G0 F4800 X94.839 Y121.449
G0 X95.126 Y122.923
G0 X95.16 Y123.807
G0 X96.646 Y124.712
G0 X96.844 Y124.73
G1 F1512.7 X96.357 Y124.818 E3.9799
G1 F1778.4 X96.067 Y124.818 E3.98564
G1 X95.574 Y124.722 E3.99558
G1 F1743.6 X95.11 Y124.422 E4.00673
G1 F1710.2 X94.827 Y123.894 E4.01906
G1 F1706.9 X94.733 Y123.323 E4.03099
G1 F1560.4 X94.782 Y122.887 E4.04088
G1 X94.982 Y123.271 E4.05065
G1 F1706.9 X95.137 Y123.618 E4.05848
G1 F1726.7 X95.606 Y124.165 E4.07317
G1 F1764.4 X96.172 Y124.474 E4.08603
G1 F1512.7 X96.844 Y124.73 E4.10276
;;retract;;
G1 F2400 E3.05276
G1 X96.067 Y124.818 E2.88582
G1 X95.574 Y124.722 E2.77852
G1 X95.11 Y124.422 E2.66053
G1 X95.033 Y124.277 E2.62526
G1 F2400 E2.60276
G0 F4800 X96.646 Y124.712
G0 X98.491 Y124.228
G1 F2400 E4.10276
G0 F4800 X98.053 Y123.806
;TYPE:WALL-OUTER
G1 F1800 X97.393 Y124.132 E4.11619
G1 X96.997 Y124.175 E4.12346
G1 X96.439 Y124.071 E4.13382
G1 X95.939 Y123.8 E4.14419
G1 X95.556 Y123.351 E4.15496
G1 X95.318 Y122.818 E4.16561
G1 X95.259 Y122.412 E4.1731
G1 X95.327 Y121.833 E4.18374
G1 X95.556 Y121.287 E4.19454
G1 X95.94 Y120.867 E4.20493
G1 X96.443 Y120.57 E4.21559
G1 X96.965 Y120.488 E4.22523
G1 X97.054 Y120.491 E4.22685
G1 X97.727 Y120.65 E4.23947
G1 X98.202 Y120.982 E4.25005
G1 X98.618 Y121.634 E4.26416
G1 X98.728 Y122.205 E4.27477
G1 X98.681 Y122.82 E4.28602
G1 X98.44 Y123.348 E4.29662
G1 X98.053 Y123.806 E4.30756
G0 F4800 X97.874 Y123.894
;;retract;;
G1 F2400 E3.25756
G1 X96.997 Y124.175 E3.06091
G1 X96.439 Y124.071 E2.93971
G1 X95.988 Y123.827 E2.83006
G1 F2400 E2.80756
G0 F4800 X98.153 Y124.456
G0 X97.729 Y124.667
G0 X99.925 Y125.46
G0 X99.94 Y134.785
G0 X120.06 Y134.785
G0 X120.587 Y124.683
G0 X123.349 Y124.712
G1 F2400 E4.30756
G0 F4800 X123.14 Y124.732
;TYPE:WALL-INNER
G1 F1541.5 X123.615 Y124.541 E4.31924
G1 F1848.5 X123.815 Y124.469 E4.32329
G1 F1811 X124.256 Y124.243 E4.33292
G1 F1760.9 X124.457 Y124.084 E4.33804
G1 F1822.1 X124.848 Y123.589 E4.35022
G1 F1899.8 X124.994 Y123.259 E4.35691
G1 F1634.9 X125.218 Y122.885 E4.36629
G1 X125.294 Y123.335 E4.37612
G1 F1899.8 X125.204 Y123.883 E4.3864
G1 F1818.4 X124.857 Y124.413 E4.39866
G1 F1757.4 X124.497 Y124.687 E4.40772
G1 F1811 X124.137 Y124.827 E4.41523
G1 F1848.5 X123.643 Y124.828 E4.42463
G1 F1541.5 X123.14 Y124.732 E4.43632
;;retract;;
G1 F2400 E3.38632
G1 X123.615 Y124.541 E3.2771
G1 X123.815 Y124.469 E3.23178
G1 X124.256 Y124.243 E3.12598
G1 X124.457 Y124.084 E3.07126
G1 X124.783 Y123.671 E2.95882
G1 F2400 E2.93632
G0 F4800 X123.349 Y124.712
G0 X121.477 Y124.177
G0 X120.645 Y122.544
G1 F2400 E4.43632
G0 F4800 X121.262 Y122.446
;TYPE:WALL-OUTER
G1 F1800 X121.286 Y121.985 E4.44475
G1 X121.92 Y120.877 E4.46804
G1 X122.439 Y120.572 E4.47903
G1 X123.005 Y120.486 E4.48947
G1 X123.564 Y120.573 E4.4998
G1 X124.062 Y120.871 E4.51039
G1 X124.417 Y121.257 E4.51996
G1 X124.46 Y121.324 E4.52141
G1 X124.673 Y121.833 E4.53148
G1 X124.741 Y122.413 E4.54213
G1 X124.682 Y122.816 E4.54956
G1 X124.443 Y123.352 E4.56027
G1 X124.065 Y123.795 E4.5709
G1 X123.559 Y124.071 E4.58142
G1 X123.011 Y124.178 E4.59161
G1 X122.606 Y124.133 E4.59904
G1 X121.945 Y123.805 E4.61251
G1 X121.553 Y123.34 E4.6236
G1 X121.323 Y122.819 E4.634
G1 X121.262 Y122.446 E4.64089
G0 F4800 X121.272 Y122.246
G0 X120.645 Y122.216
G0 X122.248 Y119.969
G0 X120.815 Y119.568
G0 X120.543 Y119.296
G0 X120.543 Y100.703
G0 X120.516 Y100.187
G0 X123.328 Y100.06
G0 X123.068 Y100.077
;TYPE:WALL-INNER
G1 F1716.8 X123.439 Y99.867 E4.64963
G1 F2227.5 X123.818 Y99.795 E4.65573
G1 F1924.4 X124.344 Y99.553 E4.66631
G1 F1767.9 X124.819 Y99.021 E4.68051
G1 F1733.5 X124.994 Y98.661 E4.68864
G1 F1643.9 X125.215 Y98.259 E4.69846
G1 X125.27 Y98.717 E4.70833
G1 F1733.5 X125.238 Y99.129 E4.71672
G1 X125.017 Y99.57 E4.72674
G1 F1730.1 X124.713 Y99.927 E4.73627
G1 F1760.9 X124.319 Y100.108 E4.74494
G1 F1920.3 X123.961 Y100.196 E4.75169
G1 F2227.5 X123.467 Y100.232 E4.75952
G1 F1716.8 X123.068 Y100.077 E4.76829
G0 F4800 X123.328 Y100.06
G0 X124.511 Y99.525
G0 X124.985 Y98.969
G0 X124.844 Y98.313
G0 X125.16 Y96.778
G0 X125.218 Y97.125
G1 F1500 X125.137 Y96.94 E4.77303
G1 F1631.9 X125.002 Y96.692 E4.77912
G1 F1703.6 X124.794 Y96.301 E4.78827
G1 F1723.4 X124.398 Y95.839 E4.80069
G1 F1760.9 X123.823 Y95.522 E4.81382
G1 F1512.7 X123.155 Y95.269 E4.83043
G1 X123.643 Y95.182 E4.84197
G1 F1774.9 X123.933 Y95.182 E4.84772
G1 X124.427 Y95.279 E4.8577
G1 F1740.2 X124.888 Y95.576 E4.86879
G1 F1706.9 X125.131 Y96 E4.87886
G1 F1703.6 X125.245 Y96.369 E4.88684
G1 X125.266 Y96.624 E4.89213
G1 F1631.9 X125.244 Y96.918 E4.89848
G1 F1500 X125.218 Y97.125 E4.90338
;;retract;;
G1 F2400 E3.85338
G1 X125.137 Y96.94 E3.81041
G1 X125.002 Y96.692 E3.75014
G1 X124.794 Y96.301 E3.65566
G1 X124.398 Y95.839 E3.5257
